X: 17092
T: Hectorina, Show's Yer Bits
R: mazurka
M: 3/4
K: Amajor
cB|A2 e^d ef|e4 ed|B^A Bc dB|c=c ^cd ec|A2 e^d ef|e4 ed|B^A Bc dB|A4 cB|
A2 e^d ef|e4 ed|B3 c dB|c=c ^cd ec|A2 e^d ef|e4 ed|B2 Bc dB|A4 A=F|
K:Amin
E3 F AB|c4 BA|e3 ^d ef|e6|B3 c dB|e3d cB|A^G AB cA|e6|
E3 F AB|c4 BA|e3 ^d ef|e6|a3 g ed|c3 B AB|ed cB A^G|A6||

